X:111
T:The Setting of the Sun
N:"Slow" "collected by Hartnett"
B:O'Neill's 111
Z:Transcribed by henrik.norbeck@mailbox.swipnet.se
M:2/4
L:1/8
K:Dm
DD|B2 c/B/.A/.G/|A2 .G.A|BcBA/B/ c/B/A/B/|G2 .D.D|
""B2 Bc/B/|A2 GG|F/G/A/G/ GFE|D2||
DD|F2 A/G/F/G/|A2 cd|cBAG GFD|C2 .D.D|
B2 c/B/A/G/|A2 GG|F/G/A/G/ GFD|D2||
